packages/ffe-icons/icons/filled/md/align_start.svg

<svg xmlns="http://www.w3.org/2000/svg" height="24" viewBox="0 -960 960 960" width="24"><path d="M130.001-800q-12.75 0-21.375-8.629-8.625-8.628-8.625-21.384 0-12.755 8.625-21.37 8.625-8.616 21.375-8.616h699.998q12.75 0 21.375 8.629t8.625 21.384q0 12.756-8.625 21.371Q842.749-800 829.999-800H130.001Zm196.153 229.999q-15.365 0-25.759-10.394t-10.394-25.759v-27.692q0-15.365 10.394-25.759t25.759-10.394h307.692q15.365 0 25.759 10.394t10.394 25.759v27.692q0 15.365-10.394 25.759t-25.759 10.394H326.154Zm0 240q-15.365 0-25.759-10.394t-10.394-25.759v-27.692q0-15.365 10.394-25.759t25.759-10.394h307.692q15.365 0 25.759 10.394t10.394 25.759v27.692q0 15.365-10.394 25.759t-25.759 10.394H326.154Z"/></svg>

<svg xmlns="http://www.w3.org/2000/svg" height="24" viewBox="0 -960 960 960" width="24"><path d="M130-800q-12.75 0-21.37-8.63-8.63-8.63-8.63-21.38 0-12.76 8.63-21.37Q117.25-860 130-860h700q12.75 0 21.37 8.63 8.63 8.63 8.63 21.38 0 12.76-8.63 21.37Q842.75-800 830-800H130Zm196.15 230q-15.36 0-25.76-10.39Q290-590.79 290-606.15v-27.7q0-15.36 10.39-25.76Q310.79-670 326.15-670h307.7q15.36 0 25.76 10.39Q670-649.21 670-633.85v27.7q0 15.36-10.39 25.76Q649.21-570 633.85-570h-307.7Zm0 240q-15.36 0-25.76-10.39Q290-350.79 290-366.15v-27.7q0-15.36 10.39-25.76Q310.79-430 326.15-430h307.7q15.36 0 25.76 10.39Q670-409.21 670-393.85v27.7q0 15.36-10.39 25.76Q649.21-330 633.85-330h-307.7Z"/></svg>
